src/icons/svg/digg.svg

<?xml version="1.0"?><svg xmlns="http://www.w3.org/2000/svg" width="40" height="40" viewBox="0 0 40 40"><path  d="m6.4 8.1h3.9v19.1h-10.3v-13.6h6.4v-5.5z m0 15.9v-7.2h-2.4v7.2h2.4z m5.5-10.4v13.6h4v-13.6h-4z m0-5.5v3.9h4v-3.9h-4z m5.6 5.5h10.3v18.3h-10.3v-3.1h6.4v-1.6h-6.4v-13.6z m6.4 10.4v-7.2h-2.4v7.2h2.4z m5.5-10.4h10.4v18.3h-10.4v-3.1h6.4v-1.6h-6.4v-13.6z m6.4 10.4v-7.2h-2.4v7.2h2.4z"></path></svg>

<svg xmlns="http://www.w3.org/2000/svg" width="40" height="40" viewBox="0 0 40 40"><path d="M6.4 8.1h3.9v19.1H0V13.6h6.4V8.1zm0 15.9v-7.2H4V24h2.4zm5.5-10.4v13.6h4V13.6h-4zm0-5.5V12h4V8.1h-4zm5.6 5.5h10.3v18.3H17.5v-3.1h6.4v-1.6h-6.4V13.6zM23.9 24v-7.2h-2.4V24h2.4zm5.5-10.4h10.4v18.3H29.4v-3.1h6.4v-1.6h-6.4V13.6zM35.8 24v-7.2h-2.4V24h2.4z"/></svg>
